assets/sonr-icons/medal.svg

<svg xmlns="http://www.w3.org/2000/svg" width="24" height="24" fill="none" viewBox="0 0 24 24"><path fill="#000" d="M17.491 4C17.88 4 18.12 4.424 17.92 4.757L15.434 8.899C16.024 9.232 16.56 9.647 17.028 10.13L19.634 5.786C20.634 4.119 19.434 2 17.49 2H15.108C14.074 2 13.112 2.533 12.564 3.41L11.41 5.257L12.589 7.144L14.26 4.47C14.443 4.178 14.763 4 15.108 4H17.491Z"/><path fill="#000" d="M6.07094 4.757C5.87094 4.424 6.11094 4 6.49994 4H8.89194C9.23694 4 9.55694 4.178 9.73994 4.47L11.9469 8C11.9649 8 11.9839 8 12.0019 8C12.9279 8 13.8129 8.18 14.6219 8.507L11.4359 3.41C10.8879 2.533 9.92594 2 8.89194 2H6.49994C4.55694 2 3.35694 4.12 4.35594 5.786L6.96594 10.137C7.43294 9.653 7.96994 9.237 8.55794 8.904L6.07094 4.757ZM13.9999 15C13.9999 16.105 13.1039 17 11.9999 17C10.8959 17 9.99994 16.105 9.99994 15C9.99994 13.895 10.8959 13 11.9999 13C13.1039 13 13.9999 13.895 13.9999 15Z"/><path fill="#000" d="M19 15C19 11.134 15.866 8 12 8C8.134 8 5 11.134 5 15C5 18.866 8.134 22 12 22C15.866 22 19 18.866 19 15ZM17 15C17 17.761 14.761 20 12 20C9.239 20 7 17.761 7 15C7 12.239 9.239 10 12 10C14.761 10 17 12.239 17 15Z"/></svg>

<svg xmlns="http://www.w3.org/2000/svg" width="24" height="24" fill="none"><path fill="currentColor" d="M17.491 4a.5.5 0 0 1 .429.757l-2.486 4.142c.59.333 1.126.748 1.594 1.231l2.606-4.344c1-1.667-.2-3.786-2.144-3.786h-2.382a3 3 0 0 0-2.544 1.41L11.41 5.257l1.179 1.887L14.26 4.47a1 1 0 0 1 .848-.47z"/><path fill="currentColor" d="M6.07 4.757A.5.5 0 0 1 6.5 4h2.392a1 1 0 0 1 .848.47L11.947 8h.055c.926 0 1.81.18 2.62.507L11.436 3.41A3 3 0 0 0 8.892 2H6.5C4.557 2 3.357 4.12 4.356 5.786l2.61 4.351a7 7 0 0 1 1.592-1.233zM14 15a2 2 0 1 1-4 0 2 2 0 0 1 4 0"/><path fill="currentColor" d="M19 15a7 7 0 1 0-14 0 7 7 0 0 0 14 0m-2 0a5 5 0 1 1-10.001-.001A5 5 0 0 1 17 15"/></svg>
